X:5929
T:Second Violin. GHW.035
O:england
M:2/4
L:1/8
S:George H.Watson,MS,Swanton Abbott,Norfolk,1850-1880
R:Misc.
A:Norfolk
N:Unsure as to which tune this is the second violin part of.
K:G
G|G B B B |G B B B|G B B B |G c c c |G c c c |A c c c |A A B B|G G G G|
G B B B |G B B B|G B B B |G c c c|F A A A|G B B B |c c d d|B2 B2:|
(3GGG G>G|B B B B|G G c c|G B B B|G B B B|G B B B|F  A A A|G B B B|
G B B B|G B B B|G c c c |G B B B|G c c c|G B B B|F A A A|G G G||


